src/icons/ionic.svg

<svg
  viewBox="0 0 512 512"
  xml:space="preserve"
  xmlns="http://www.w3.org/2000/svg"
>
  <g fill="#4f8ff7">
    <path
      d="M423.59 132.8a31.855 31.855 0 0 0 5.408-17.804c0-17.675-14.33-32-32-32a31.853 31.853 0 0 0-17.805 5.409c-34.486-25.394-77.085-40.409-123.2-40.409-114.88 0-208 93.125-208 208 0 114.88 93.125 208 208 208 114.87 0 208-93.123 208-208 0-46.111-15.016-88.71-40.408-123.2zm-31.762 259.03c-17.646 17.646-38.191 31.499-61.064 41.174-23.672 10.012-48.826 15.089-74.766 15.089s-51.095-5.077-74.767-15.089c-22.873-9.675-43.417-23.527-61.064-41.174s-31.5-38.191-41.174-61.064c-10.013-23.672-15.09-48.828-15.09-74.768s5.077-51.095 15.089-74.767c9.674-22.873 23.527-43.417 41.174-61.064s38.191-31.5 61.064-41.174c23.673-10.013 48.828-15.09 74.768-15.09 25.939 0 51.094 5.077 74.766 15.089a191.221 191.221 0 0 1 37.802 21.327 31.853 31.853 0 0 0-3.568 14.679c0 17.675 14.327 32 32 32 5.293 0 10.28-1.293 14.678-3.568a191.085 191.085 0 0 1 21.327 37.801c10.013 23.672 15.09 48.827 15.09 74.767 0 25.939-5.077 51.096-15.09 74.768-9.675 22.873-23.527 43.418-41.175 61.064z"
    />
    <circle cx="256" cy="256" r="96" />
  </g>
</svg>

<svg viewBox="0 0 512 512" xmlns="http://www.w3.org/2000/svg">
  <path
    d="M423.59 132.8C427.124 127.536 429.007 121.337 428.998 114.996C428.998 97.321 414.668 82.996 396.998 82.996C390.657 82.9866 384.457 84.8699 379.193 88.405C344.707 63.011 302.108 47.996 255.993 47.996C141.113 47.996 47.993 141.121 47.993 255.996C47.993 370.876 141.118 463.996 255.993 463.996C370.863 463.996 463.993 370.873 463.993 255.996C463.993 209.885 448.977 167.286 423.585 132.796L423.59 132.8ZM391.828 391.83C374.182 409.476 353.637 423.329 330.764 433.004C307.092 443.016 281.938 448.093 255.998 448.093C230.058 448.093 204.903 443.016 181.231 433.004C158.358 423.329 137.814 409.477 120.167 391.83C102.52 374.183 88.667 353.639 78.993 330.766C68.98 307.094 63.903 281.938 63.903 255.998C63.903 230.058 68.98 204.903 78.992 181.231C88.666 158.358 102.519 137.814 120.166 120.167C137.813 102.52 158.357 88.667 181.23 78.993C204.903 68.98 230.058 63.903 255.998 63.903C281.937 63.903 307.092 68.98 330.764 78.992C344.133 84.6433 356.816 91.7984 368.566 100.319C366.217 104.855 364.993 109.89 364.998 114.998C364.998 132.673 379.325 146.998 396.998 146.998C402.291 146.998 407.278 145.705 411.676 143.43C420.198 155.179 427.353 167.862 433.003 181.231C443.016 204.903 448.093 230.058 448.093 255.998C448.093 281.937 443.016 307.094 433.003 330.766C423.328 353.639 409.476 374.184 391.828 391.83Z"
    fill="#4F8FF7"
  />
  <path
    d="M256 352C309.019 352 352 309.019 352 256C352 202.981 309.019 160 256 160C202.981 160 160 202.981 160 256C160 309.019 202.981 352 256 352Z"
    fill="#4F8FF7"
  />
</svg>
